src/assets/img/components/textarea.svg

<?xml version="1.0" encoding="UTF-8" standalone="no"?>
<svg width="101px" height="82px" viewBox="0 0 101 82" version="1.1" xmlns="http://www.w3.org/2000/svg" xmlns:xlink="http://www.w3.org/1999/xlink">
    <title>Textarea Component</title>
    <desc>Textarea Component</desc>
    <defs></defs>
    <g id="Page-1" stroke="none" stroke-width="1" fill="none" fill-rule="evenodd">
        <g id="Material-Internal-Landing-Page-(Components)" transform="translate(-1203.000000, -790.000000)">
            <g id="textarea" transform="translate(1203.000000, 790.000000)">
                <path d="M2.38354037,79.98 L99.2826087,79.98" id="underline" stroke="#00BCD4" stroke-width="3.24500005" stroke-linecap="square"></path>
                <path d="M4.36866359,3.5 L46.2963291,3.5" id="title" stroke="#CFD2D4" stroke-width="6.76279974" stroke-linecap="square"></path>
                <path d="M83.5,57.6818182 L83.5,71.386194" id="text-input-line" stroke="#00BCD4" stroke-width="0.714999974" stroke-linecap="square"></path>
                <path d="M4.36866359,32.8813999 L93.1704867,32.8813999 L96.5518866,32.8813999 L96.5518866,26.1186001 L93.1704867,26.1186001 L4.36866359,26.1186001 L0.987263725,26.1186001 L0.987263725,32.8813999 L4.36866359,32.8813999 Z M4.36866359,49.8813999 L93.1704867,49.8813999 L96.5518866,49.8813999 L96.5518866,43.1186001 L93.1704867,43.1186001 L4.36866359,43.1186001 L0.987263725,43.1186001 L0.987263725,49.8813999 L4.36866359,49.8813999 Z M4.36866359,67.8813999 L73,67.8813999 L76.3813999,67.8813999 L76.3813999,61.1186001 L73,61.1186001 L4.36866359,61.1186001 L0.987263725,61.1186001 L0.987263725,67.8813999 L4.36866359,67.8813999 Z" id="Text" fill="#D8D8D8"></path>
            </g>
        </g>
    </g>
</svg>

<svg width="101" height="82" viewBox="0 0 101 82" xmlns="http://www.w3.org/2000/svg"><title>Textarea Component</title><desc>Textarea Component</desc><g fill="none" fill-rule="evenodd"><path d="M2.384 79.98h96.899" stroke="#00BCD4" stroke-width="3.245" stroke-linecap="square"/><path d="M4.369 3.5h41.927" stroke="#CFD2D4" stroke-width="6.763" stroke-linecap="square"/><path d="M83.5 57.682v13.704" stroke="#00BCD4" stroke-width=".715" stroke-linecap="square"/><path d="M4.369 32.881h92.183V26.12H.987v6.762H4.37zm0 17h92.183V43.12H.987v6.762H4.37zm0 18H76.38V61.12H.987v6.762H4.37z" fill="#D8D8D8"/></g></svg>
